X:1
T:Title
%%score ( 1 2 ) ( 3 4 )
L:1/8
Q:1/4=68
M:6/8
K:Eb
V:1 treble nm="Flute, Soprano"
V:2 treble 
V:3 bass nm="Flute, Bass"
V:4 bass 
V:1
 z3 z2 E/F/ | [EG][EG][EG] [EG][E_G][E=G] | [GB]3 [EG]2 [GB] | [Ac][Ac][Ac] [Ac][ce][Ac] | %4
 [GB]3- [GB]2 E/F/ | [EG][EG][EG] [EG][E_G][E=G] | [GB]3 [EG]2 E | [DF][DF][DF] [B,F][B,E][B,D] | %8
 [B,E]3- [B,E]2 [GB] | c6 | B6 | [GB][GB][GB] [GB][FA][EG] | [DF]3- [DF]2 [GB] | c3 z3 | B3 z3 | %15
 [DF][DF][DF] [B,F][B,E][B,D] | [B,E]6 |] %17
V:2
 x6 | x6 | x6 | x6 | x6 | x6 | x6 | x6 | x6 | A2 A A2 [Ac] | G2 G G2 [EG] | x6 | x6 | %13
 A2 A [Ae]2 [Ac] | G2 G [EG]2 E | x6 | x6 |] %17
V:3
 z3 z2 G,/A,/ | [E,B,][E,B,][E,B,] [E,B,][E,=A,][E,B,] | [E,E]3 [E,B,]2 [E,E] | %3
w: 1.~A~ *|man sion~ is~ wait ing~ in~|glo ry,~ My~|
 [A,E][A,E][A,E] [A,E][A,E][A,E] | [E,E]3- [E,E]2 G,/A,/ | [E,B,][E,B,][E,B,] [E,B,][E,=A,][E,B,] | %6
w: Sav ior~ has~ gone~ to~ pre|pare;~ * The~ *|ran somed~ who~ shine~ in~ its~|
 [E,E]3 [E,B,]2 [E,G,] | [B,,B,][B,,B,][B,,B,] [B,,A,][B,,G,][B,,F,] | [E,G,]3- [E,G,]2 [E,E] | %9
w: beau ty,~ Will~|dwell~ in~ that~ cit y~ so~|fair.~ * *|
 [A,E]2 [A,E] [A,E]2 [A,E] | [E,E]2 [E,E] [E,E]2 [E,B,] | [E,E][E,E][E,E] [E,B,][D,B,][E,B,] | %12
w: |||
 [B,,B,]2 [B,,B,] [B,,B,]2 [E,E] | [A,E]2 [A,E] [A,C]2 [A,E] | [E,E]2 [E,E] [E,B,]2 [E,G,] | %15
w: |||
 [B,,B,][B,,B,][B,,B,] [B,,A,][B,,G,][B,,F,] | [E,G,]6 |] %17
w: ||
V:4
 z3 z2 E, | x6 | x6 | x6 | z3 z2 E, | x6 | x6 | x6 | x6 | x6 | x6 | x6 | x6 | x6 | x6 | x6 | x6 |] %17

